public/images/icons/search-user.svg

<svg width="60" height="60" viewBox="0 0 60 60" fill="none" xmlns="http://www.w3.org/2000/svg">
<g clip-path="url(#clip0_1134_1401)">
<path d="M57.7977 52.8271C59.1711 54.1993 59.1711 56.4259 57.7977 57.7981C57.1109 58.4849 56.2121 58.8282 55.3121 58.8282C54.4121 58.8282 53.5133 58.4849 52.8266 57.7981L41.5098 46.4813C43.3584 45.0277 45.0272 43.3589 46.4809 41.5103L57.7977 52.8271Z" fill="#4DBBEB"/>
<path d="M41.4643 36.4934L46.4811 41.5102C45.0274 43.3588 43.3586 45.0276 41.51 46.4813L36.4932 41.4645V41.4633C38.4008 40.0783 40.0781 38.4011 41.4631 36.4934H41.4643Z" fill="#FFF5CD"/>
<path d="M45.7031 23.4375C45.7031 28.3102 44.1293 32.823 41.4633 36.4934C40.0783 38.401 38.401 40.0783 36.4934 41.4633C32.823 44.1293 28.3102 45.7031 23.4375 45.7031C11.1598 45.7031 1.17188 35.7152 1.17188 23.4375C1.17188 11.1598 11.1598 1.17188 23.4375 1.17188C35.7152 1.17188 45.7031 11.1598 45.7031 23.4375Z" fill="#4DBBEB"/>
<path d="M23.4375 5.85938C33.1301 5.85938 41.0156 13.7449 41.0156 23.4375C41.0156 33.1301 33.1301 41.0156 23.4375 41.0156C13.7449 41.0156 5.85938 33.1301 5.85938 23.4375C5.85938 13.7449 13.7449 5.85938 23.4375 5.85938Z" fill="#BEE7F4"/>
<path d="M58.6267 51.9983L42.9845 36.3561C45.5327 32.5178 46.875 28.0729 46.875 23.4375C46.875 10.5141 36.3609 0 23.4375 0C10.5141 0 0 10.5141 0 23.4375C0 36.3609 10.5141 46.875 23.4375 46.875C28.073 46.875 32.5179 45.5326 36.3561 42.9846L40.6798 47.3082L40.6816 47.3101L51.9982 58.6267C52.8839 59.5123 54.0608 60 55.3125 60C56.5642 60 57.7411 59.5123 58.6263 58.627C59.5122 57.7419 60 56.5649 60 55.3125C60 54.0601 59.5121 52.8831 58.6267 51.9983ZM38.2636 41.5773C39.4757 40.5858 40.5858 39.4757 41.5773 38.2636L44.902 41.5883C43.8905 42.7822 42.7822 43.8905 41.5883 44.902L38.2636 41.5773ZM2.34375 23.4375C2.34375 11.8064 11.8064 2.34375 23.4375 2.34375C35.0686 2.34375 44.5312 11.8064 44.5312 23.4375C44.5312 27.9111 43.1425 32.1875 40.515 35.8049C39.203 37.6133 37.6134 39.2029 35.805 40.5149L35.8048 40.5151C32.1875 43.1425 27.9111 44.5312 23.4375 44.5312C11.8064 44.5312 2.34375 35.0686 2.34375 23.4375ZM56.9694 56.9694C56.5264 57.4124 55.938 57.6562 55.3125 57.6562C54.687 57.6562 54.0986 57.4124 53.6556 56.9694L43.2499 46.5637C44.4371 45.545 45.5448 44.4372 46.5636 43.25L56.9696 53.6561C57.4124 54.0983 57.6562 54.6865 57.6562 55.3125C57.6562 55.9385 57.4124 56.5267 56.9694 56.9694Z" fill="black"/>
<path d="M42.1875 23.4375C42.1875 13.0986 33.7764 4.6875 23.4375 4.6875C13.0986 4.6875 4.6875 13.0986 4.6875 23.4375C4.6875 33.7764 13.0986 42.1875 23.4375 42.1875C33.7764 42.1875 42.1875 33.7764 42.1875 23.4375ZM23.4375 39.8438C14.3911 39.8438 7.03125 32.4839 7.03125 23.4375C7.03125 14.3911 14.3911 7.03125 23.4375 7.03125C32.4839 7.03125 39.8438 14.3911 39.8438 23.4375C39.8438 32.4839 32.4839 39.8438 23.4375 39.8438Z" fill="black"/>
<path d="M35.8965 19.9213C36.5006 19.6891 36.8023 19.0112 36.5701 18.407C35.561 15.7806 33.804 13.535 31.4889 11.9133C29.1186 10.2527 26.3345 9.375 23.4375 9.375C22.7904 9.375 22.2656 9.89977 22.2656 10.5469C22.2656 11.194 22.7904 11.7188 23.4375 11.7188C28.2538 11.7188 32.6521 14.7443 34.3823 19.2477C34.4673 19.4689 34.6174 19.6592 34.8127 19.7935C35.0081 19.9277 35.2395 19.9996 35.4765 19.9996C35.6201 19.9995 35.7625 19.973 35.8965 19.9213ZM36.3281 22.2656C35.6813 22.2656 35.1562 22.7906 35.1562 23.4375C35.1562 24.0844 35.6813 24.6094 36.3281 24.6094C36.975 24.6094 37.5 24.0844 37.5 23.4375C37.5 22.7906 36.975 22.2656 36.3281 22.2656Z" fill="black"/>
</g>
<defs>
<clipPath id="clip0_1134_1401">
<rect width="60" height="60" fill="white"/>
</clipPath>
</defs>
</svg>

<svg xmlns="http://www.w3.org/2000/svg" width="60" height="60" fill="none" xmlns:v="https://vecta.io/nano"><g clip-path="url(#A)"><path d="M57.798 52.827c1.373 1.372 1.373 3.599 0 4.971-.687.687-1.586 1.03-2.486 1.03s-1.799-.343-2.486-1.03L41.51 46.481a29.6 29.6 0 0 0 4.971-4.971l11.317 11.317z" fill="#4dbbeb"/><path d="M41.464 36.493l5.017 5.017c-1.454 1.849-3.122 3.517-4.971 4.971l-5.017-5.017v-.001c1.908-1.385 3.585-3.062 4.97-4.97h.001z" fill="#fff5cd"/><path d="M45.703 23.438c0 4.873-1.574 9.386-4.24 13.056a22.42 22.42 0 0 1-4.97 4.97c-3.67 2.666-8.183 4.24-13.056 4.24-12.278 0-22.266-9.988-22.266-22.266S11.16 1.172 23.438 1.172s22.266 9.988 22.266 22.266z" fill="#4dbbeb"/><path d="M23.438 5.859c9.693 0 17.578 7.886 17.578 17.578S33.13 41.016 23.438 41.016 5.859 33.13 5.859 23.438 13.745 5.859 23.438 5.859z" fill="#bee7f4"/><g fill="#000"><path d="M58.627 51.998L42.985 36.356c2.548-3.838 3.891-8.283 3.891-12.919C46.875 10.514 36.361 0 23.438 0S0 10.514 0 23.438s10.514 23.438 23.438 23.438a23.23 23.23 0 0 0 12.919-3.89l4.324 4.324.002.002L52 58.629c.886.886 2.063 1.373 3.314 1.373A4.66 4.66 0 0 0 60 55.313c0-1.252-.488-2.429-1.373-3.314zM38.264 41.577a23.59 23.59 0 0 0 3.314-3.314l3.325 3.325c-1.011 1.194-2.12 2.302-3.314 3.314l-3.325-3.325zm-35.92-18.14c0-11.631 9.463-21.094 21.094-21.094s21.094 9.463 21.094 21.094a20.91 20.91 0 0 1-4.016 12.367 21.2 21.2 0 0 1-4.71 4.71h0a20.91 20.91 0 0 1-12.367 4.016c-11.631 0-21.094-9.463-21.094-21.094zM56.97 56.969a2.33 2.33 0 0 1-3.314 0L43.25 46.564a30.77 30.77 0 0 0 3.314-3.314L56.97 53.656c.443.442.687 1.03.687 1.656s-.244 1.214-.687 1.657zM42.188 23.438c0-10.339-8.411-18.75-18.75-18.75s-18.75 8.411-18.75 18.75 8.411 18.75 18.75 18.75 18.75-8.411 18.75-18.75zm-18.75 16.406c-9.046 0-16.406-7.36-16.406-16.406s7.36-16.406 16.406-16.406 16.406 7.36 16.406 16.406-7.36 16.406-16.406 16.406zm12.459-19.923a1.17 1.17 0 0 0 .674-1.514c-1.009-2.626-2.766-4.872-5.081-6.494a13.96 13.96 0 0 0-8.051-2.538 1.172 1.172 0 1 0 0 2.344c4.816 0 9.215 3.026 10.945 7.529.085.221.235.412.43.546s.427.206.664.206a1.17 1.17 0 0 0 .42-.078zm.432 2.344c-.647 0-1.172.525-1.172 1.172s.525 1.172 1.172 1.172 1.172-.525 1.172-1.172-.525-1.172-1.172-1.172z"/></g></g><defs><clipPath id="A"><path fill="#fff" d="M0 0h60v60H0z"/></clipPath></defs></svg>
